X:1
T:Holy Hill
T:William Henry Pontius, circa 1905
T:Holy Hill
T:Public Domain
C:William Henry Pontius, circa 1905
Z:Public Domain
%%score ( 1 2 ) ( 3 4 )
L:1/8
M:2/4
K:D
V:1 treble 
V:2 treble 
V:3 bass 
V:4 bass 
V:1
 D2 | F2 A2 | A3 [CA] | [Dd]2 [Gc]2 | [Fd]3 [FA] | [Fd]2 [Ec]2 | [Dd]2 A2 | (GF) (ED) | %8
 [CA]3 [EA] | [EA]2 [^Ec]2 | [Fc]3 [^Ec] | [Fc]2 [Ee]2 | [Ee]3 [CA] | [Dd]2 [DA]2 | [DB]2 [DA]2 | %15
 (AG) (FE) | D2 |] %17
V:2
 D2 | F2 A2 | A3 x | x4 | x4 | x4 | x2 A2 | G2 E2 | x4 | x4 | x4 | x4 | x4 | x4 | x4 | C2 C2 | %16
 D2 |] %17
V:3
 D,2 | F,2 A,2 | A,3 [G,A,] | [F,A,]2 [E,A,]2 | [D,A,]3 [D,A,] | [D,A,]2 [E,A,]2 | [F,A,]2 A,2 | %7
 (G,F,) (E,D,) | [A,,E,]3 [A,C] | [A,C]2 [^G,B,]2 | [F,A,]3 [C,^G,] | [F,A,]2 [^G,B,]2 | %12
 [A,C]3 [G,A,] | [F,A,]2 [F,A,]2 | G,2 [F,A,]2 | [E,A,]2 (A,G,) | [D,F,]2 |] %17
V:4
 D,2 | F,2 A,2 | A,3 x | x4 | x4 | x4 | x2 A,2 | G,2 E,2 | x4 | x4 | x4 | x4 | x4 | x4 | G,2 x2 | %15
 x2 A,,2 | x2 |] %17

